X: 125
T:Santo Cristo
N:On recording, he starts on the C part. The format he uses is CC D AA BB
N:CC D AA BB CC DD
M:4/4
L:1/4
Q:2/4=100
Z:Gerry Strong
N:Posted to the woodenflute mailing list January 2002
K:D
FA|:d2 d/2e/2d/2c/2|dA  FA|d2 d/2e/2d/2c/2|dA  FA|!
G2 G/2F/2E/2G/2|F>G A>d|c>A G/2F/2G/2E/2|1D2 FA:|2D4|!
|:A>F D/2E/2F/2D/2|E>F G2|G>F E/2F/2G/2E/2|F>E D2|!
A>F D/2E/2F/2D/2|E>F G2|G/2A/2G/2F/2 E/2D/2E/2F/2|D4:|!
|:F3 G|A3 d|ce dB|A4|!
F3 G|A3 d|ce dB|A4|!
d3 B|G>A Bd|c3 A|F>G Ac|!
B3 G|E>F GA|1F4:|2F2 A/2B/2A/2B/2|!
A2 F/2A/2F/2A/2|d2A/2B/2A/2B/2|A2 F/2A/2F/2A/2|d2 d/2c/2B/2c/2|!
d/2c/2B/2c/2 d/2c/2B/2c/2|d/2e/2d/2c/2 B/2c/2d/2B/2|c/2d/2c/2B/2
A/2B/2c/2A/2|B/2c/2B/2A/2 G/2A/2B/2G/2|!
A/2B/2A/2G/2 F/2G/2A/2F/2|G/2A/2G/2F/2 E/2F/2G/2E/2|F/2G/2F/2E/2
D/2E/2F/2D/2|~E>D E/2D/2E/2F/2|!
D4|
